proprietary/assets/icons/computer-en-internet/digitalisering.svg

<svg enable-background="new 0 0 64 64" viewBox="0 0 64 64" xmlns="http://www.w3.org/2000/svg"><path d="m0 0h64v64h-64z" fill="none"/><path d="m61.7 24.9-3.9-5.9-.7-14.6c-.1-.8-.7-1.4-1.5-1.4h-23.2c-.8 0-1.5.6-1.5 1.4l-.7 14.6-3.9 5.9c-.2.3-.3.7-.3 1v2.8c0 .7.6 1.3 1.3 1.3h33.3c.7 0 1.3-.6 1.3-1.3v-2.8c.1-.4 0-.7-.2-1zm-21.7.1 1.1-3h5.7l1.1 3zm-6.8-6 .7-13h20.3l.7 13z"/><path d="m17.6 30.6c-.4-.4-.9-.6-1.4-.6h-11.2c-1.1 0-2 .9-2 2v25c0 1.1.9 2 2 2h19c1.1 0 2-.9 2-2v-17.2c0-.5-.2-1-.6-1.4zm5.4 25.4h-17v-23h10v5c0 1.1.9 2 2 2h5z"/><path d="m49.9 33.5c-.1-.4-.5-.8-.9-1s-.9-.1-1.3.1l-9.5 5.4c-.4.2-.6.5-.7.8-.1.4-.1.7 0 1.1.3.7 1 1.2 1.7 1.1l4-.5c-2.7 4.8-7.4 8.3-13 9.3-.7.1-1.2.7-1.2 1.7v1.8c0 1 .8 1.7 1.7 1.4 7.4-1.2 13.7-5.9 17.1-12.4l2.5 3.3c.4.5 1.2.7 1.9.4s1-1.1.8-1.8z"/></svg>

<?xml version="1.0" encoding="utf-8"?>
<!-- Generator: Adobe Illustrator 23.1.1, SVG Export Plug-In . SVG Version: 6.00 Build 0)  -->
<svg version="1.1" xmlns="http://www.w3.org/2000/svg" xmlns:xlink="http://www.w3.org/1999/xlink" x="0px" y="0px"
	 viewBox="0 0 64 64" style="enable-background:new 0 0 64 64;" xml:space="preserve">
<style type="text/css">
	.st0{fill:none;}
</style>
<g id="Box">
	<rect class="st0" width="64" height="64"/>
</g>
<g id="Icon">
	<g>
		<path d="M61.7,24.9L57.8,19L57.1,4.4C57,3.6,56.4,3,55.6,3H32.4c-0.8,0-1.5,0.6-1.5,1.4L30.2,19l-3.9,5.9c-0.2,0.3-0.3,0.7-0.3,1
			v2.8c0,0.7,0.6,1.3,1.3,1.3h33.3c0.7,0,1.3-0.6,1.3-1.3v-2.8C62,25.5,61.9,25.2,61.7,24.9z M40,25l1.1-3h5.7l1.1,3H40z M33.2,19
			l0.7-13h20.3l0.7,13H33.2z"/>
		<path d="M17.6,30.6c-0.4-0.4-0.9-0.6-1.4-0.6H5c-1.1,0-2,0.9-2,2v25c0,1.1,0.9,2,2,2h19c1.1,0,2-0.9,2-2V39.8c0-0.5-0.2-1-0.6-1.4
			L17.6,30.6z M23,56H6V33h10v5c0,1.1,0.9,2,2,2h5V56z"/>
		<path d="M49.9,33.5c-0.1-0.4-0.5-0.8-0.9-1s-0.9-0.1-1.3,0.1L38.2,38c-0.4,0.2-0.6,0.5-0.7,0.8c-0.1,0.4-0.1,0.7,0,1.1
			c0.3,0.7,1,1.2,1.7,1.1l4-0.5c-2.7,4.8-7.4,8.3-13,9.3c-0.7,0.1-1.2,0.7-1.2,1.7v1.8c0,1,0.8,1.7,1.7,1.4
			c7.4-1.2,13.7-5.9,17.1-12.4l2.5,3.3c0.4,0.5,1.2,0.7,1.9,0.4s1-1.1,0.8-1.8L49.9,33.5z"/>
	</g>
</g>
</svg>
